X: 43118
T: Wine Strand, The
R: hornpipe
M: 4/4
K: Dmajor
de|:f2ed BAdA|BAFE D2ED|B,DED ADFD|BDAD E2de|
fded BAd2|(3BAG FA DFED|B,cde BAdA|FAFE D2:|
|:(3BAG|F2ED FDA,D|defg fedA|BcdA ~B3A|BAFA E3E|
FFED FDA,D|defg fedA|Bcde BA~A2|1 FAFE D2:|2 FABA d2||

